public/formular-icons/operators/Times.svg

<svg style="vertical-align:.02ex" xmlns="http://www.w3.org/2000/svg" width="1.76ex" height="1.09ex" viewBox="0 -491 778 482" xmlns:xlink="http://www.w3.org/1999/xlink"><defs><path id="a" d="M630 29q0-20-21-20-5 0-22 16t-94 93L389 222 284 117Q178 13 175 11q-4-2-7-2-8 0-14 6t-7 14q0 7 14 22t94 95l104 104-104 104q-81 81-94 95t-14 22q0 9 6 14t15 5q5 0 7-1 3-2 109-106l105-105 104 104q77 77 94 93t22 16q21 0 21-20 0-7-10-18t-98-98L418 250l104-105q84-84 96-97t12-19Z"/></defs><g stroke="currentColor" fill="currentColor" stroke-width="0"><use data-c="D7" xlink:href="#a" transform="scale(1 -1)"/></g></svg>

<svg style="vertical-align: 0.02ex" xmlns="http://www.w3.org/2000/svg" width="1.76ex" height="1.09ex" role="img" focusable="false" viewBox="0 -491 778 482" xmlns:xlink="http://www.w3.org/1999/xlink"><defs><path id="MJX-3-TEX-N-D7" d="M630 29Q630 9 609 9Q604 9 587 25T493 118L389 222L284 117Q178 13 175 11Q171 9 168 9Q160 9 154 15T147 29Q147 36 161 51T255 146L359 250L255 354Q174 435 161 449T147 471Q147 480 153 485T168 490Q173 490 175 489Q178 487 284 383L389 278L493 382Q570 459 587 475T609 491Q630 491 630 471Q630 464 620 453T522 355L418 250L522 145Q606 61 618 48T630 29Z"></path></defs><g stroke="currentColor" fill="currentColor" stroke-width="0" transform="scale(1,-1)"><g data-mml-node="math"><g data-mml-node="mo"><use data-c="D7" xlink:href="#MJX-3-TEX-N-D7"></use></g></g></g></svg>
